app/img/header/header-logo-black.svg

<svg width="107" height="23" viewBox="0 0 107 23" fill="none" xmlns="http://www.w3.org/2000/svg">
<path d="M96.541 22.7926C99.9469 22.7689 103.344 22.7372 106.75 22.7135C106.75 20.9564 106.75 19.1993 106.742 17.4423H88.0643V14.0626C93.9509 14.0152 99.8207 13.9993 105.724 13.9835V9.17923C102.545 9.17923 101.847 9.19506 99.9132 9.17923C97.9538 9.15549 95.9944 9.17132 94.035 9.17132H88.098V6.322C88.1064 6.30618 88.14 6.27454 88.1736 6.24289L88.1736 6.24285C88.2073 6.21119 88.2409 6.1637 88.2745 6.1637L106.75 6.09247V0.813318C106.565 0.797489 106.38 0.781659 106.195 0.781659C98.0716 0.76583 89.9564 0.757915 81.8329 0.75C81.5722 0.75 81.3115 0.837063 81.0088 0.892466V22.7531C81.4124 22.7926 81.7656 22.8639 82.1272 22.8639C86.929 22.848 91.7392 22.8243 96.541 22.7926Z" fill="black"/>
<path d="M47.7148 22.8085C47.7148 15.4319 47.7148 8.17406 47.7148 0.852892C48.0596 0.813318 48.3287 0.75 48.5978 0.75C55.502 0.773744 62.4061 0.773744 69.3187 0.852892C70.7063 0.868722 72.1022 1.08242 73.4646 1.34361C75.9201 1.82641 77.3581 3.35396 77.8291 5.61759C78.1318 7.0739 78.2832 8.5698 78.3757 10.0499C78.5271 12.5509 78.3168 15.052 77.8711 17.5214C77.4254 19.975 76.0463 21.645 73.3384 22.2782C71.2697 22.761 69.1842 22.7847 67.0902 22.7926C61.54 22.8164 55.9897 22.8006 50.4395 22.8006C49.5902 22.8085 48.7492 22.8085 47.7148 22.8085ZM70.4876 16.1284C70.639 15.701 70.9754 15.1707 71.0006 14.6325C71.0847 12.7963 71.2697 10.9284 71.0174 9.11592C70.782 7.35884 70.4792 6.97101 68.3937 6.5357C67.6705 6.38532 66.9136 6.36949 66.1736 6.36157C62.5827 6.34574 58.9835 6.34574 55.3927 6.34574C55.2161 6.34574 55.0479 6.40906 54.7704 6.46447C54.7704 10.0182 54.7704 13.5403 54.7704 17.0228C54.9722 17.1019 55.0563 17.1573 55.1488 17.1573C59.0255 17.1573 62.8939 17.1811 66.7706 17.1257C68.0152 17.1178 69.2682 16.9278 70.4876 16.1284Z" fill="black"/>
<path fill-rule="evenodd" clip-rule="evenodd" d="M28.005 22.8072H36.1369C32.0163 15.3278 28.0134 8.07785 24.0189 0.84375H12.9016C12.4661 1.6262 12.0346 2.40075 11.6061 3.17016C10.6779 4.83677 9.76308 6.4792 8.8483 8.12534C8.16713 9.34817 7.48386 10.571 6.8006 11.7938C6.11733 13.0167 5.43406 14.2395 4.7529 15.4623C4.2461 16.3738 3.73063 17.2817 3.2141 18.1915C2.38498 19.6519 1.55312 21.1171 0.75 22.6094C4.99681 22.6094 5.41728 22.5935 8.96603 22.5935C9.55799 21.5169 10.1576 20.4188 10.7503 19.3332L10.8413 19.1664H25.9699C26.3431 19.8317 26.7071 20.4839 27.0607 21.1176C27.3844 21.6978 27.6995 22.2625 28.005 22.8072ZM23.3546 14.2118H13.5071L18.166 5.86963L23.3546 14.2118Z" fill="black"/>
<path d="M37.1025 0.8125C39.617 0.8125 42.0221 0.8125 44.4103 0.8125C44.6963 1.86516 44.6879 21.8816 44.4188 22.7602C42.0052 22.7602 39.6001 22.7602 37.1025 22.7602C37.1025 15.4311 37.1025 8.21281 37.1025 0.8125Z" fill="black"/>
</svg>

<svg width="107" height="23" fill="none" xmlns="http://www.w3.org/2000/svg"><path d="M96.541 22.793c3.406-.024 6.803-.056 10.209-.08 0-1.757 0-3.514-.008-5.27H88.064v-3.38a3282.05 3282.05 0 0117.66-.08V9.18c-3.179 0-3.877.016-5.81 0-1.96-.024-3.92-.008-5.879-.008h-5.937v-2.85c.008-.016.042-.047.076-.08.033-.03.067-.078.1-.078l18.476-.072V.813a6.45 6.45 0 00-.555-.031C98.072.766 89.956.758 81.833.75c-.26 0-.522.087-.824.142v21.861c.403.04.757.11 1.118.11 4.802-.015 9.612-.039 14.414-.07zm-48.826.015V.854c.345-.04.614-.103.883-.103 6.904.024 13.808.024 20.72.103 1.388.016 2.784.23 4.147.49 2.455.483 3.893 2.011 4.364 4.275.303 1.456.454 2.952.547 4.432.151 2.5-.06 5.002-.505 7.471-.446 2.454-1.825 4.124-4.533 4.757-2.068.483-4.154.507-6.248.515-5.55.023-11.1.008-16.65.008-.85.008-1.69.008-2.725.008zm22.773-6.68c.151-.427.487-.957.513-1.495.084-1.837.269-3.705.016-5.517-.235-1.757-.538-2.145-2.623-2.58-.724-.15-1.48-.167-2.22-.174-3.591-.016-7.19-.016-10.781-.016-.177 0-.345.063-.623.118v10.559c.202.079.286.134.379.134 3.877 0 7.745.024 11.622-.031 1.244-.008 2.497-.198 3.717-.998z" fill="#000"/><path fill-rule="evenodd" clip-rule="evenodd" d="M28.005 22.807h8.132c-4.12-7.48-8.124-14.73-12.118-21.963H12.902L11.606 3.17 8.848 8.125c-.68 1.223-1.364 2.446-2.047 3.669-.684 1.223-1.367 2.445-2.048 3.668a337.74 337.74 0 01-1.539 2.73c-.829 1.46-1.66 2.925-2.464 4.417 4.247 0 4.667-.016 8.216-.016a958.927 958.927 0 001.784-3.26l.091-.167H25.97l1.09 1.952.945 1.69zm-4.65-8.595h-9.848l4.659-8.342 5.189 8.342z" fill="#000"/><path d="M37.102.813h7.308c.286 1.052.278 21.069.009 21.947h-7.316V.812z" fill="#000"/></svg>
